X: 12763
T: Father O'Grady's Visit To Bocca
R: reel
M: 4/4
K: Cmajor
|:"C"gc'c'd' e'c'd'c'|"C"gagf dfc'd'|"C"e'c'd'c' "G"bggf|"F"dgfd "C"c2c'd'|
"C"e'c'd'c' gagf|"G"defd gac'd'|"C"e'c'd'c' "G"bggf|"F"dgfd "C"c2ef:|
|:"C"gc'c'd' e'g'f'd'|"C"c'e'd'c' "G"bg (3gag|"F"f2fg "G"fd (3ded|"G"d'c'bg "F"fd d2|
"C"gc'c'd' e'g'f'd'|"C"c'e'd'c' "G"bggd'|"C"e'2g'e' "F"f'd'bd'|1 "G"e'g'f'd' "C"c'2ef:|2 "G"e'g'f'd' "C"c'4||

